assets/sonr-icons/feather.svg

<svg xmlns="http://www.w3.org/2000/svg" width="24" height="24" fill="none" viewBox="0 0 24 24"><path fill="#000" fill-rule="evenodd" d="M19.3993 3.65133C16.8366 1.32323 12.9243 1.32325 10.3616 3.65142C10.2538 3.74881 10.1359 3.86629 9.96507 4.0366L9.88266 4.11872L5.05118 8.9502L5.0164 8.98485C4.88792 9.11262 4.72481 9.27483 4.60338 9.47357C4.49483 9.65025 4.42077 9.83686 4.3751 10.0215L4.37468 10.0232C4.31873 10.2511 4.31939 10.4839 4.31991 10.6658L4.32 10.715L4.32 17.2138C4.31997 17.4561 4.31994 17.6921 4.33634 17.892C4.34548 18.0035 4.36092 18.1248 4.39117 18.2512L1.72118 20.9212C1.34628 21.2961 1.34628 21.9039 1.72118 22.2788C2.09608 22.6537 2.70392 22.6537 3.07882 22.2788L5.7487 19.609C5.87497 19.6392 5.99606 19.6546 6.10708 19.6637C6.30688 19.6801 6.54287 19.6801 6.78515 19.68L13.284 19.68L13.333 19.6801C13.5155 19.6806 13.7461 19.6812 13.9739 19.6258L13.9754 19.6255C14.162 19.5798 14.3492 19.5055 14.5262 19.3968C14.7251 19.2753 14.8873 19.1122 15.0152 18.9836L15.0498 18.9488L19.9025 14.0961C20.1091 13.8896 20.2401 13.7586 20.3487 13.6383C22.6768 11.0756 22.6768 7.16347 20.3487 4.60077C20.2513 4.49286 20.1338 4.37499 19.9634 4.20407L19.8813 4.12168C19.658 3.89736 19.5238 3.76377 19.3993 3.65133ZM13.5174 17.7577C13.4723 17.7598 13.41 17.76 13.284 17.76H7.59765L9.51765 15.84H15.4434L13.6922 17.5912C13.6032 17.6802 13.5589 17.7242 13.5255 17.7546L13.5224 17.7574L13.5174 17.7577ZM6.24234 10.4812C6.24024 10.5265 6.24 10.589 6.24 10.715V16.4024L15.1612 7.4812C15.5361 7.1063 16.1439 7.1063 16.5188 7.4812C16.8937 7.8561 16.8937 8.46394 16.5188 8.83885L11.4376 13.92H17.3634L18.5222 12.7612C18.7596 12.5237 18.8529 12.4301 18.9241 12.351L18.9266 12.3483C20.5908 10.5175 20.5908 7.72159 18.9266 5.89074L18.9241 5.888C18.8608 5.81782 18.7824 5.73908 18.5977 5.55364L18.5207 5.47637C18.2868 5.24147 18.1911 5.14721 18.112 5.07589L18.1093 5.07341C16.2784 3.40923 13.4826 3.40923 11.6517 5.07341L11.649 5.07589C11.5788 5.13918 11.5001 5.2176 11.3147 5.4023L11.2373 5.47932L6.40882 10.3078C6.31983 10.3968 6.27587 10.4411 6.2454 10.4746L6.24251 10.4778L6.24234 10.4812Z" clip-rule="evenodd"/></svg>

<svg xmlns="http://www.w3.org/2000/svg" width="24" height="24" fill="none"><path fill="currentColor" fill-rule="evenodd" d="M19.4 3.651a6.72 6.72 0 0 0-9.038 0 12 12 0 0 0-.397.386l-.082.082L5.05 8.95l-.035.035c-.128.128-.291.29-.413.489a2 2 0 0 0-.228.547v.002c-.056.228-.056.46-.055.643v6.548c0 .242 0 .478.016.678.01.111.025.233.055.36l-2.67 2.67a.96.96 0 1 0 1.358 1.357l2.67-2.67q.19.043.358.055c.2.016.436.016.678.016h6.548c.182 0 .413.001.64-.054h.002c.187-.046.374-.12.551-.23.2-.12.361-.284.49-.412l.034-.035 4.852-4.853c.207-.206.338-.337.447-.458a6.72 6.72 0 0 0 0-9.037 12 12 0 0 0-.386-.397l-.082-.082a13 13 0 0 0-.482-.47m-5.883 14.107a6 6 0 0 1-.233.002H7.598l1.92-1.92h5.925l-1.75 1.751a6 6 0 0 1-.168.164l-.003.002zM6.242 10.48a6 6 0 0 0-.002.234v5.687l8.921-8.92a.96.96 0 1 1 1.358 1.357l-5.081 5.081h5.925l1.16-1.159c.237-.237.33-.33.401-.41l.003-.003a4.8 4.8 0 0 0 0-6.457l-.003-.003c-.063-.07-.142-.149-.326-.334l-.077-.078c-.234-.235-.33-.329-.409-.4l-.003-.003a4.8 4.8 0 0 0-6.457 0l-.003.003c-.07.063-.149.142-.334.326l-.078.077-4.828 4.829a6 6 0 0 0-.164.167l-.002.003z" clip-rule="evenodd"/></svg>
